svgs/sharp-solid/laptop-binary.svg

<svg xmlns="http://www.w3.org/2000/svg" viewBox="0 0 640 512"><!--! Font Awesome Pro 6.6.0 by @fontawesome - https://fontawesome.com License - https://fontawesome.com/license (Commercial License) Copyright 2024 Fonticons, Inc. --><path d="M64 32l32 0 448 0 32 0 0 32 0 288-64 0 0-256L128 96l0 256-64 0L64 64l0-32zM0 432l0-48 640 0 0 48-48 48L48 480 0 432zM176 128l64 0 16 0 0 16 0 80 0 16-16 0-64 0-16 0 0-16 0-80 0-16 16 0zm16 80l32 0 0-48-32 0 0 48zm112-80l16 0 16 0 0 16 0 80 0 16-32 0 0-16 0-64-16 0 0-32 16 0zm80 0l16 0 64 0 16 0 0 16 0 80 0 16-16 0-64 0-16 0 0-16 0-80 0-16zm32 32l0 48 32 0 0-48-32 0zM192 272l16 0 16 0 0 16 0 64-32 0 0-48-16 0 0-32 16 0zm256 16l0 64-32 0 0-48-16 0 0-32 16 0 16 0 16 0 0 16zm-80 0l0 64-32 0 0-48-32 0 0 48-32 0 0-64 0-16 16 0 64 0 16 0 0 16z"/></svg>

<svg xmlns="http://www.w3.org/2000/svg" viewBox="0 0 640 512"><!--! Font Awesome Pro 6.4.0 by @fontawesome - https://fontawesome.com License - https://fontawesome.com/license (Commercial License) Copyright 2023 Fonticons, Inc. --><path d="M64 32H96 544h32V64 352H512V96H128V352H64V64 32zM0 432V384H640v48l-48 48H48L0 432zM176 128h64 16v16 80 16H240 176 160V224 144 128h16zm16 80h32V160H192v48zm112-80h16 16v16 80 16H304V224 160H288V128h16zm80 0h16 64 16v16 80 16H464 400 384V224 144 128zm32 32v48h32V160H416zM192 272h16 16v16 64H192V304H176V272h16zm256 16v64H416V304H400V272h16 16 16v16zm-80 0v64H336V304H304v48H272V288 272h16 64 16v16z"/></svg>
